brandFactory_export/3.Masa/Fireware_3Masa.svg

<?xml version="1.0" encoding="UTF-8"?>
<svg width="24px" height="24px" viewBox="0 0 24 24" version="1.1" xmlns="http://www.w3.org/2000/svg" xmlns:xlink="http://www.w3.org/1999/xlink">
    <title>3.Masa/Fireware_3Masa</title>
    <g id="Symbols" stroke="none" stroke-width="1" fill="none" fill-rule="evenodd">
        <g id="3.Masa/Fireware_3Masa" fill="#5CB615" fill-rule="nonzero">
            <path d="M22.1647059,6.77310924 L18.107563,6.76302521 L18.107563,1.48907563 L21.9327731,1.48907563 C22,1.5092437 22.1647059,1.70420168 22.1647059,1.92605042 L22.1647059,6.77310924 L22.1647059,6.77310924 Z M22.1647059,14.7630252 L13.4857143,14.712605 L13.4857143,8.32605042 C13.4857143,8.29579832 13.4756303,8.26554622 13.4756303,8.24537815 L22.1647059,8.26554622 L22.1647059,14.7630252 Z M22.1647059,21.697479 C22.1647059,21.9462185 22.010084,22.1243697 21.9596639,22.1344538 L18.107563,22.1344538 L18.107563,16.2319328 L22.1647059,16.2521008 L22.1647059,21.697479 L22.1647059,21.697479 Z M16.6453782,22.1344538 L10.2184874,22.1344538 C10.2386555,22.1142857 10.2655462,22.0941176 10.2857143,22.0739496 C11.189916,21.2470588 11.7243697,20.0907563 11.7647059,18.8638655 C11.8016807,17.9193277 11.5428571,16.9848739 11.0252101,16.1915966 L16.6487395,16.2218487 L16.6453782,22.1344538 Z M7.73445378,8.94789916 C7.78151261,8.83697479 7.76470588,8.7092437 7.68403361,8.61848739 C7.61344538,8.5210084 7.48907563,8.47731092 7.37142857,8.51092437 C6.12773109,8.81008403 4.8605042,9.44537815 3.7512605,10.2890756 L3.7512605,8.21176471 L12.0403361,8.23193277 C12.0403361,8.26218487 12.0201681,8.29243697 12.0201681,8.32268908 L12.0201681,14.7092437 L10.3764706,14.6991597 L9.58655462,14.6991597 L9.44201681,14.5815126 C6.34285714,12.2890756 7.67731092,9.08907563 7.73445378,8.94789916 L7.73445378,8.94789916 Z M3.75462185,1.92605042 C3.75462185,1.70756303 3.91932773,1.5092437 3.95966387,1.48907563 L7.51260504,1.48907563 L7.51260504,6.73613445 L3.75798319,6.72605042 L3.75798319,1.92605042 L3.75462185,1.92605042 Z M8.96806723,1.48907563 L16.6453782,1.48907563 L16.6453782,6.75294118 L8.96806723,6.73277311 L8.96806723,1.48907563 L8.96806723,1.48907563 Z M21.9596639,0 L3.95966387,0 C3.08571429,0 2.29579832,0.914285714 2.29579832,1.92605042 L2.29579832,11.6201681 C-0.605042017,14.897479 -0.467226891,19.297479 1.1092437,21.3344538 C1.89915966,22.3495798 3.01848739,23.0621849 4.25210084,23.4218487 C4.04033613,23.297479 3.8487395,23.1495798 3.67731092,22.9747899 C2.71260504,22.010084 2.66554622,20.4504202 3.54957983,19.4084034 C3.71428571,19.2302521 3.88907563,19.0621849 4.08403361,18.9109244 C5.28067227,17.9563025 4.74621849,16.5983193 4.74621849,16.5848739 C4.6789916,16.4168067 4.7092437,16.2252101 4.82352941,16.087395 C4.94117647,15.9563025 5.11932773,15.8991597 5.2907563,15.9361345 C5.96302521,16.1142857 6.64201681,16.4941176 7.22689076,17.0084034 C8.51092437,18.1512605 9.53277311,20.8336134 8.26890756,22.5815126 C7.92941176,23.0487395 7.46218487,23.405042 6.93445378,23.6168067 L21.9563025,23.6168067 C22.8504202,23.6168067 23.6201787,22.7294118 23.6201787,21.6907563 L23.6201787,1.92605042 C23.6235294,0.924369748 22.8268908,0 21.9596639,0 Z" id="Fireware_3Masa"></path>
        </g>
    </g>
</svg>

<svg width="24" height="24" viewBox="0 0 24 24" xmlns="http://www.w3.org/2000/svg"><path d="M22.165 6.773l-4.057-.01V1.489h3.825c.067.02.232.215.232.437v4.847zm0 7.99l-8.68-.05V8.326c0-.03-.01-.06-.01-.08l8.69.02v6.497zm0 6.934c0 .25-.155.427-.205.437h-3.852v-5.902l4.057.02v5.445zm-5.52.437h-6.427c.02-.02.048-.04.068-.06a4.553 4.553 0 001.479-3.21 4.566 4.566 0 00-.74-2.672l5.624.03-.004 5.912zM7.735 8.948a.31.31 0 00-.051-.33.288.288 0 00-.313-.107c-1.243.3-2.51.934-3.62 1.778V8.212l8.29.02c0 .03-.02.06-.02.09v6.387l-1.645-.01h-.79l-.144-.117c-3.1-2.293-1.765-5.493-1.708-5.634zm-3.98-7.022c0-.218.164-.417.205-.437h3.553v5.247l-3.755-.01v-4.8h-.003zm5.213-.437h7.677v5.264l-7.677-.02V1.489zM21.96 0h-18c-.874 0-1.664.914-1.664 1.926v9.694c-2.901 3.277-2.763 7.677-1.187 9.714.79 1.016 1.91 1.728 3.143 2.088a2.75 2.75 0 01-.575-.447c-.964-.965-1.011-2.525-.127-3.567.164-.178.34-.346.534-.497 1.197-.955.662-2.313.662-2.326a.494.494 0 01.078-.498.489.489 0 01.467-.15c.672.177 1.351.557 1.936 1.071 1.284 1.143 2.306 3.826 1.042 5.574-.34.467-.807.823-1.335 1.035h15.022c.894 0 1.664-.888 1.664-1.926V1.926C23.624.924 22.827 0 21.96 0z" fill="#5CB615" fill-rule="nonzero"/></svg>
